!!!OTL: Ruschelputthennchen, was ruschelt in dem Stroh ?
!!!ARE: Europa, Mitteleuropa, Deutschland, Provinz Sachsen
!!!SCT: D0158
!!!YEM: Copyright 1995, estate of Helmut Schaffrath.
**kern
*ICvox
*Ivox
*M2/4
*k[]
*C:
=1
{8.e
16e
4e
=2
8.d
16c
8d
8e
=3
8.c
16c
8c
8c
=4
4.G}
{8G
=5
4e
8e
8e
=6
4d
8e
8d
=7
8c
8c
8c
8c
=8
4.G}
{8G
=9
4c
8e
8g
=10
8.g
16g
8g
8a
=11
4a
8f
8e
=12
4.d}
{8d
=13
8e
8g
4c
=14
8d
8f
8G
8G
=15
4c
4c
=16
2c}
==
!!!AGN: Kinder - Lied
!! erste Zeile rhythmisch korrigert
!!    Inzipit = Variante zum Lied, Variante zu Lied D0159 ?
!!!ONB: ESAC (Essen Associative Code) Database: DVA
!!!AMT: simple duple
!!!AIN: vox
!!!EED: Helmut Schaffrath
!!!EEV: 1.0
*-
